exports/number-of-daily-smokers-gender_v11_850x600.svg

<svg xmlns="http://www.w3.org/2000/svg" version="1.1" style="background-color:#fff;-webkit-font-smoothing:antialiased" width="850" height="600" font-family="'Helvetica Neue',Helvetica,Arial,sans-serif" font-size="18" text-rendering="optimizeLegibility"><g class="ChartTab"><g class="HeaderView"><g opacity=".8" transform="matrix(.27 0 0 .27 778 15)"><a xmlns:xlink="http://www.w3.org/1999/xlink" xlink:href="https://ourworldindata.org" target="_blank"><g><path fill="#1B2543" d="M0 0h211.2v130.1H0z"/><path fill="#E63912" d="M0 112.2h211.2v17.9H0z"/><g><path fill="none" d="M1.2 12.3h210.2v99.2H1.2z"/><path fill="#FFF" d="M37.8 32.2c0 12.7-7.7 19.4-17.1 19.4-9.7 0-16.6-7.5-16.6-18.7 0-11.7 7.3-19.3 17.1-19.3 10.1.1 16.6 7.7 16.6 18.6zm-28.6.6c0 7.9 4.3 14.9 11.8 14.9 7.5 0 11.8-6.9 11.8-15.3 0-7.3-3.8-14.9-11.8-14.9-7.9 0-11.8 7.3-11.8 15.3zM62.7 43.8c0 2.7.1 5.1.2 7.2h-4.3l-.3-4.3h-.1c-1.3 2.1-4 4.9-8.8 4.9-4.2 0-9.1-2.3-9.1-11.6V24.6h4.8v14.6c0 5 1.5 8.4 5.9 8.4 3.2 0 5.5-2.2 6.3-4.4.3-.7.4-1.6.4-2.5V24.6h4.8v19.2zM67.3 32.8c0-3.1-.1-5.8-.2-8.2h4.2l.2 5.2h.2c1.2-3.5 4.1-5.8 7.3-5.8.5 0 .9.1 1.4.2v4.5c-.5-.1-1-.2-1.6-.2-3.4 0-5.8 2.6-6.5 6.2-.1.7-.2 1.4-.2 2.2V51h-4.8V32.8zM95.4 51L86 14.2h5l4.4 18.6c1.1 4.6 2.1 9.2 2.7 12.7h.1c.6-3.7 1.8-8 3-12.8l4.9-18.5h5l4.5 18.7c1 4.4 2 8.7 2.6 12.6h.1c.8-4 1.8-8.1 3-12.7l4.9-18.5h4.9L120.6 51h-5L111 31.9c-1.1-4.7-1.9-8.3-2.4-12h-.1c-.7 3.7-1.5 7.3-2.8 12L100.4 51h-5zM154.9 37.6c0 9.8-6.8 14-13.2 14-7.2 0-12.7-5.2-12.7-13.6 0-8.8 5.8-14 13.1-14 7.7 0 12.8 5.5 12.8 13.6zm-21 .3c0 5.8 3.3 10.1 8 10.1 4.6 0 8-4.3 8-10.3 0-4.5-2.2-10.1-7.9-10.1s-8.1 5.2-8.1 10.3zM158.2 32.8c0-3.1-.1-5.8-.2-8.2h4.2l.2 5.2h.2c1.2-3.5 4.1-5.8 7.3-5.8.5 0 .9.1 1.4.2v4.5c-.5-.1-1-.2-1.6-.2-3.4 0-5.8 2.6-6.5 6.2-.1.7-.2 1.4-.2 2.2V51h-4.8V32.8zM173.5 12.3h4.8V51h-4.8V12.3zM206.5 12.3v31.9c0 2.3.1 5 .2 6.8h-4.3l-.2-4.6h-.2c-1.5 2.9-4.7 5.2-9 5.2-6.4 0-11.3-5.4-11.3-13.4-.1-8.8 5.4-14.2 11.9-14.2 4 0 6.8 1.9 8 4h.1V12.3h4.8zm-4.8 23.1c0-.6-.1-1.4-.2-2a7 7 0 00-6.9-5.6c-5 0-7.9 4.4-7.9 10.2 0 5.3 2.6 9.8 7.8 9.8 3.2 0 6.2-2.1 7.1-5.7.2-.7.2-1.3.2-2.1v-4.6zM42.8 64c.1 1.6-1.1 2.9-3.1 2.9-1.7 0-2.9-1.3-2.9-2.9 0-1.7 1.3-3 3-3 1.9 0 3 1.3 3 3zm-5.4 33.8V71.4h4.8v26.4h-4.8zM47.5 78.6c0-2.7-.1-5-.2-7.1h4.3l.3 4.4h.1c1.3-2.5 4.4-5 8.8-5 3.7 0 9.4 2.2 9.4 11.2v15.8h-4.8V82.6c0-4.3-1.6-7.8-6.1-7.8-3.2 0-5.6 2.2-6.5 4.9-.2.6-.3 1.4-.3 2.2v15.9h-4.8V78.6zM84 61.6c2.9-.4 6.3-.8 10.1-.8 6.8 0 11.7 1.6 14.9 4.6 3.3 3 5.2 7.3 5.2 13.2 0 6-1.9 10.9-5.3 14.3-3.4 3.4-9.1 5.3-16.3 5.3-3.4 0-6.2-.2-8.6-.4V61.6zm4.8 32.5c1.2.2 3 .3 4.8.3 10.2 0 15.7-5.7 15.7-15.6.1-8.7-4.9-14.2-14.9-14.2-2.5 0-4.3.2-5.6.5v29zM132.1 97.8l-.4-3.3h-.2a9.79 9.79 0 01-8.1 3.9c-5.4 0-8.1-3.8-8.1-7.6 0-6.4 5.7-9.9 15.9-9.8v-.5c0-2.2-.6-6.1-6-6.1-2.5 0-5 .8-6.9 2l-1.1-3.2c2.2-1.4 5.4-2.3 8.7-2.3 8.1 0 10.1 5.5 10.1 10.8v9.9c0 2.3.1 4.5.4 6.3h-4.3zm-.7-13.4c-5.3-.1-11.2.8-11.2 5.9 0 3.1 2.1 4.6 4.5 4.6 3.4 0 5.6-2.2 6.4-4.4.2-.5.3-1 .3-1.5v-4.6zM146.6 63.9v7.6h6.9v3.7h-6.9v14.2c0 3.3.9 5.1 3.6 5.1 1.3 0 2.2-.2 2.8-.3l.2 3.6c-.9.4-2.4.7-4.3.7-2.2 0-4-.7-5.2-2-1.4-1.4-1.9-3.8-1.9-6.9V75.1h-4.1v-3.7h4.1v-6.3l4.8-1.2zM171.4 97.8l-.4-3.3h-.2a9.79 9.79 0 01-8.1 3.9c-5.4 0-8.1-3.8-8.1-7.6 0-6.4 5.7-9.9 15.9-9.8v-.5c0-2.2-.6-6.1-6-6.1-2.5 0-5 .8-6.9 2l-1.1-3.2c2.2-1.4 5.4-2.3 8.7-2.3 8.1 0 10.1 5.5 10.1 10.8v9.9c0 2.3.1 4.5.4 6.3h-4.3zm-.7-13.4c-5.3-.1-11.2.8-11.2 5.9 0 3.1 2.1 4.6 4.5 4.6 3.4 0 5.6-2.2 6.4-4.4.2-.5.3-1 .3-1.5v-4.6z"/></g></g></a></g><a href="https://ourworldindata.org/grapher/number-of-daily-smokers-gender" target="_blank"><text font-size="27" x="15" y="36.6" fill="#555"><tspan x="15" y="36.6">Number of daily smokers, men and women, China</tspan></text></a><text font-size="14.4" x="15" y="55.5" fill="#666"><tspan x="15" y="55.52">Estimates of the number of men and women who smoke cigarettes at least daily (all ages).</tspan></text></g><g class="LineChart"><defs><clipPath id="a"><path d="M87.6 0h830v956.2h-830z"/></clipPath></defs><g class="AxisBoxView"><g class="HorizontalAxis" fill="#666" text-anchor="middle" font-size="16.2"><text x="97.6" y="556.5">1980</text><text x="187.4" y="556.5">1985</text><text x="277.2" y="556.5">1990</text><text x="366.9" y="556.5">1995</text><text x="456.7" y="556.5">2000</text><text x="546.5" y="556.5">2005</text><text x="672.2" y="556.5">2012</text></g><g class="VerticalAxis" fill="#666" dominant-baseline="middle" text-anchor="end" font-size="16.2"><text x="92.6" y="535.3">0</text><text x="92.6" y="450.6">50 million</text><text x="92.6" y="365.8">100 million</text><text x="92.6" y="281.1">150 million</text><text x="92.6" y="196.3">200 million</text><text x="92.6" y="111.6">250 million</text></g><g class="AxisGridLines"><path stroke="#ccc" d="M97.6 535.3h574.59"/><path stroke="#ddd" stroke-dasharray="3,2" d="M97.6 450.6h574.59M97.6 365.8h574.59M97.6 281.1h574.59M97.6 196.3h574.59M97.6 111.6h574.59"/></g><g class="AxisGridLines" stroke="#ddd" stroke-dasharray="3,2"><path d="M97.6 535.3V78.4M187.4 535.3V78.4M277.2 535.3V78.4M366.9 535.3V78.4M456.7 535.3V78.4M546.5 535.3V78.4M636.3 535.3V78.4"/></g></g><g clip-path="url(#a)"><g class="HeightedLegend clickable"><g class="legendMark"><path fill="#34983f" d="M682.19 77.15h10v2.5h-10z"/><text font-size="14.4" x="697.2" y="82.7" fill="#333"><tspan x="697.19" y="82.72">Daily male smokers</tspan></text></g><g class="legendMark"><path fill="#3360a9" d="M682.19 513.45h10v2.5h-10z"/><text font-size="14.4" x="697.2" y="519" fill="#333"><tspan x="697.19" y="519.02">Daily female smokers</tspan></text></g></g><g class="Lines"><g class="key-China_0"><path stroke="#34983f" stroke-linecap="round" d="M98 253l18-11 18-12 18-12 17-11 18-10 18-8 18-9 18-8 18-7 18-7 18-7 18-8 18-7 18-8 18-8 18-7 18-2 18 1 18 2 18 6 18 5 18 4 18-1 18-2 18-2 18-3 17-2 18-6 18-7 18-8 18-10 18-10" fill="none" stroke-width="1.5"/><g fill="#34983f"><circle cx="98" cy="253" r="2"/><circle cx="116" cy="242" r="2"/><circle cx="134" cy="230" r="2"/><circle cx="152" cy="218" r="2"/><circle cx="169" cy="207" r="2"/><circle cx="187" cy="197" r="2"/><circle cx="205" cy="189" r="2"/><circle cx="223" cy="180" r="2"/><circle cx="241" cy="172" r="2"/><circle cx="259" cy="165" r="2"/><circle cx="277" cy="158" r="2"/><circle cx="295" cy="151" r="2"/><circle cx="313" cy="143" r="2"/><circle cx="331" cy="136" r="2"/><circle cx="349" cy="128" r="2"/><circle cx="367" cy="120" r="2"/><circle cx="385" cy="113" r="2"/><circle cx="403" cy="111" r="2"/><circle cx="421" cy="112" r="2"/><circle cx="439" cy="114" r="2"/><circle cx="457" cy="120" r="2"/><circle cx="475" cy="125" r="2"/><circle cx="493" cy="129" r="2"/><circle cx="511" cy="128" r="2"/><circle cx="529" cy="126" r="2"/><circle cx="547" cy="124" r="2"/><circle cx="565" cy="121" r="2"/><circle cx="582" cy="119" r="2"/><circle cx="600" cy="113" r="2"/><circle cx="618" cy="106" r="2"/><circle cx="636" cy="98" r="2"/><circle cx="654" cy="88" r="2"/><circle cx="672" cy="78" r="2"/></g></g><g class="key-China_1"><path stroke="#3360a9" stroke-linecap="round" d="M98 509l18-2 18-1 18-1 17-2 18 1h36l18 1h18l18 1h18l18 1h18l18 1h36l18 1h36l18 1 18 2 18 1 18 1 18 1 18 1 18 1h71l18-1 18-1" fill="none" stroke-width="1.5"/><g fill="#3360a9"><circle cx="98" cy="509" r="2"/><circle cx="116" cy="507" r="2"/><circle cx="134" cy="506" r="2"/><circle cx="152" cy="505" r="2"/><circle cx="169" cy="503" r="2"/><circle cx="187" cy="504" r="2"/><circle cx="205" cy="504" r="2"/><circle cx="223" cy="504" r="2"/><circle cx="241" cy="505" r="2"/><circle cx="259" cy="505" r="2"/><circle cx="277" cy="506" r="2"/><circle cx="295" cy="506" r="2"/><circle cx="313" cy="507" r="2"/><circle cx="331" cy="507" r="2"/><circle cx="349" cy="508" r="2"/><circle cx="367" cy="508" r="2"/><circle cx="385" cy="508" r="2"/><circle cx="403" cy="509" r="2"/><circle cx="421" cy="509" r="2"/><circle cx="439" cy="509" r="2"/><circle cx="457" cy="510" r="2"/><circle cx="475" cy="512" r="2"/><circle cx="493" cy="513" r="2"/><circle cx="511" cy="514" r="2"/><circle cx="529" cy="515" r="2"/><circle cx="547" cy="516" r="2"/><circle cx="565" cy="517" r="2"/><circle cx="582" cy="517" r="2"/><circle cx="600" cy="517" r="2"/><circle cx="618" cy="517" r="2"/><circle cx="636" cy="517" r="2"/><circle cx="654" cy="516" r="2"/><circle cx="672" cy="515" r="2"/></g></g></g></g></g><g class="SourcesFooter" fill="#777"><g class="clickable" fill="#777"><text font-size="12.6" x="15" y="581.6"><tspan x="15" y="581.58">Source: Institute for Health Metrics and Evaluation (IHME) (2012)</tspan></text></g><text font-size="12.6" x="649" y="581.6"><tspan x="649.02" y="581.58"><a target="_blank" href="https://ourworldindata.org" fill="#777">OurWorldInData.org</a> • <a href="http://creativecommons.org/licenses/by-sa/4.0/deed.en_US" target="_blank" fill="#777">CC BY-SA</a></tspan></text></g></g></svg>

<svg xmlns="http://www.w3.org/2000/svg" version="1.1" style="font-family: 'Helvetica Neue', Helvetica, Arial, sans-serif; font-size: 18px; background-color: white; text-rendering: optimizeLegibility; -webkit-font-smoothing: antialiased;" width="850" height="600"><g class="ChartTab"><g class="HeaderView"><g opacity="0.8" transform="translate(778, 15) scale(0.27)"><a xmlns:xlink="http://www.w3.org/1999/xlink" xlink:href="https://ourworldindata.org" target="_blank"><g><rect x="0" y="0" fill="#1B2543" width="211.2" height="130.1"/><rect x="0" y="112.2" fill="#E63912" width="211.2" height="17.9"/><g><rect x="1.2" y="12.3" fill="none" width="210.2" height="99.2"/><path fill="#FFFFFF" d="M37.8,32.2c0,12.7-7.7,19.4-17.1,19.4c-9.7,0-16.6-7.5-16.6-18.7c0-11.7,7.3-19.3,17.1-19.3 C31.3,13.7,37.8,21.3,37.8,32.2z M9.2,32.8c0,7.9,4.3,14.9,11.8,14.9c7.5,0,11.8-6.9,11.8-15.3c0-7.3-3.8-14.9-11.8-14.9 C13.1,17.5,9.2,24.8,9.2,32.8z"/><path fill="#FFFFFF" d="M62.7,43.8c0,2.7,0.1,5.1,0.2,7.2h-4.3l-0.3-4.3h-0.1c-1.3,2.1-4,4.9-8.8,4.9c-4.2,0-9.1-2.3-9.1-11.6 V24.6h4.8v14.6c0,5,1.5,8.4,5.9,8.4c3.2,0,5.5-2.2,6.3-4.4c0.3-0.7,0.4-1.6,0.4-2.5V24.6h4.8V43.8z"/><path fill="#FFFFFF" d="M67.3,32.8c0-3.1-0.1-5.8-0.2-8.2h4.2l0.2,5.2h0.2c1.2-3.5,4.1-5.8,7.3-5.8c0.5,0,0.9,0.1,1.4,0.2v4.5 c-0.5-0.1-1-0.2-1.6-0.2c-3.4,0-5.8,2.6-6.5,6.2c-0.1,0.7-0.2,1.4-0.2,2.2V51h-4.8V32.8z"/><path fill="#FFFFFF" d="M95.4,51l-9.4-36.8h5l4.4,18.6c1.1,4.6,2.1,9.2,2.7,12.7h0.1c0.6-3.7,1.8-8,3-12.8l4.9-18.5h5l4.5,18.7 c1,4.4,2,8.7,2.6,12.6h0.1c0.8-4,1.8-8.1,3-12.7l4.9-18.5h4.9L120.6,51h-5L111,31.9c-1.1-4.7-1.9-8.3-2.4-12h-0.1 c-0.7,3.7-1.5,7.3-2.8,12L100.4,51H95.4z"/><path fill="#FFFFFF" d="M154.9,37.6c0,9.8-6.8,14-13.2,14c-7.2,0-12.7-5.2-12.7-13.6c0-8.8,5.8-14,13.1-14 C149.8,24,154.9,29.5,154.9,37.6z M133.9,37.9c0,5.8,3.3,10.1,8,10.1c4.6,0,8-4.3,8-10.3c0-4.5-2.2-10.1-7.9-10.1 C136.3,27.6,133.9,32.8,133.9,37.9z"/><path fill="#FFFFFF" d="M158.2,32.8c0-3.1-0.1-5.8-0.2-8.2h4.2l0.2,5.2h0.2c1.2-3.5,4.1-5.8,7.3-5.8c0.5,0,0.9,0.1,1.4,0.2v4.5 c-0.5-0.1-1-0.2-1.6-0.2c-3.4,0-5.8,2.6-6.5,6.2c-0.1,0.7-0.2,1.4-0.2,2.2V51h-4.8V32.8z"/><path fill="#FFFFFF" d="M173.5,12.3h4.8V51h-4.8V12.3z"/><path fill="#FFFFFF" d="M206.5,12.3v31.9c0,2.3,0.1,5,0.2,6.8h-4.3l-0.2-4.6H202c-1.5,2.9-4.7,5.2-9,5.2 c-6.4,0-11.3-5.4-11.3-13.4c-0.1-8.8,5.4-14.2,11.9-14.2c4,0,6.8,1.9,8,4h0.1V12.3H206.5z M201.7,35.4c0-0.6-0.1-1.4-0.2-2 c-0.7-3.1-3.3-5.6-6.9-5.6c-5,0-7.9,4.4-7.9,10.2c0,5.3,2.6,9.8,7.8,9.8c3.2,0,6.2-2.1,7.1-5.7c0.2-0.7,0.2-1.3,0.2-2.1V35.4z"/><path fill="#FFFFFF" d="M42.8,64c0.1,1.6-1.1,2.9-3.1,2.9c-1.7,0-2.9-1.3-2.9-2.9c0-1.7,1.3-3,3-3C41.7,61,42.8,62.3,42.8,64z M37.4,97.8V71.4h4.8v26.4H37.4z"/><path fill="#FFFFFF" d="M47.5,78.6c0-2.7-0.1-5-0.2-7.1h4.3l0.3,4.4h0.1c1.3-2.5,4.4-5,8.8-5c3.7,0,9.4,2.2,9.4,11.2v15.8h-4.8 V82.6c0-4.3-1.6-7.8-6.1-7.8c-3.2,0-5.6,2.2-6.5,4.9c-0.2,0.6-0.3,1.4-0.3,2.2v15.9h-4.8V78.6z"/><path fill="#FFFFFF" d="M84,61.6c2.9-0.4,6.3-0.8,10.1-0.8c6.8,0,11.7,1.6,14.9,4.6c3.3,3,5.2,7.3,5.2,13.2c0,6-1.9,10.9-5.3,14.3 c-3.4,3.4-9.1,5.3-16.3,5.3c-3.4,0-6.2-0.2-8.6-0.4V61.6z M88.8,94.1c1.2,0.2,3,0.3,4.8,0.3c10.2,0,15.7-5.7,15.7-15.6 c0.1-8.7-4.9-14.2-14.9-14.2c-2.5,0-4.3,0.2-5.6,0.5V94.1z"/><path fill="#FFFFFF" d="M132.1,97.8l-0.4-3.3h-0.2c-1.5,2.1-4.3,3.9-8.1,3.9c-5.4,0-8.1-3.8-8.1-7.6c0-6.4,5.7-9.9,15.9-9.8v-0.5 c0-2.2-0.6-6.1-6-6.1c-2.5,0-5,0.8-6.9,2l-1.1-3.2c2.2-1.4,5.4-2.3,8.7-2.3c8.1,0,10.1,5.5,10.1,10.8v9.9c0,2.3,0.1,4.5,0.4,6.3 H132.1z M131.4,84.4c-5.3-0.1-11.2,0.8-11.2,5.9c0,3.1,2.1,4.6,4.5,4.6c3.4,0,5.6-2.2,6.4-4.4c0.2-0.5,0.3-1,0.3-1.5V84.4z"/><path fill="#FFFFFF" d="M146.6,63.9v7.6h6.9v3.7h-6.9v14.2c0,3.3,0.9,5.1,3.6,5.1c1.3,0,2.2-0.2,2.8-0.3l0.2,3.6 c-0.9,0.4-2.4,0.7-4.3,0.7c-2.2,0-4-0.7-5.2-2c-1.4-1.4-1.9-3.8-1.9-6.9V75.1h-4.1v-3.7h4.1v-6.3L146.6,63.9z"/><path fill="#FFFFFF" d="M171.4,97.8l-0.4-3.3h-0.2c-1.5,2.1-4.3,3.9-8.1,3.9c-5.4,0-8.1-3.8-8.1-7.6c0-6.4,5.7-9.9,15.9-9.8v-0.5 c0-2.2-0.6-6.1-6-6.1c-2.5,0-5,0.8-6.9,2l-1.1-3.2c2.2-1.4,5.4-2.3,8.7-2.3c8.1,0,10.1,5.5,10.1,10.8v9.9c0,2.3,0.1,4.5,0.4,6.3 H171.4z M170.7,84.4c-5.3-0.1-11.2,0.8-11.2,5.9c0,3.1,2.1,4.6,4.5,4.6c3.4,0,5.6-2.2,6.4-4.4c0.2-0.5,0.3-1,0.3-1.5V84.4z"/></g></g></a></g><a href="https://ourworldindata.org/grapher/number-of-daily-smokers-gender" target="_blank"><text font-size="27.00" x="15.0" y="36.6" fill="#555"><tspan x="15" y="36.6">Number of daily smokers, men and women, China</tspan></text></a><text font-size="14.40" x="15.0" y="55.5" fill="#666"><tspan x="15" y="55.519999999999996">Estimates of the number of men and women who smoke cigarettes at least daily (all ages).</tspan></text></g><g class="LineChart"><defs><clipPath id="boundsClip-6"><rect x="87.598" y="0" width="830" height="956.2"></rect></clipPath></defs><g class="AxisBoxView"><g class="HorizontalAxis"><text x="97.6" y="556.5" fill="#666" text-anchor="middle" font-size="16.2">1980</text><text x="187.4" y="556.5" fill="#666" text-anchor="middle" font-size="16.2">1985</text><text x="277.2" y="556.5" fill="#666" text-anchor="middle" font-size="16.2">1990</text><text x="366.9" y="556.5" fill="#666" text-anchor="middle" font-size="16.2">1995</text><text x="456.7" y="556.5" fill="#666" text-anchor="middle" font-size="16.2">2000</text><text x="546.5" y="556.5" fill="#666" text-anchor="middle" font-size="16.2">2005</text><text x="672.2" y="556.5" fill="#666" text-anchor="middle" font-size="16.2">2012</text></g><g class="VerticalAxis"><text x="92.60" y="535.3" fill="#666" dominant-baseline="middle" text-anchor="end" font-size="16.2">0</text><text x="92.60" y="450.6" fill="#666" dominant-baseline="middle" text-anchor="end" font-size="16.2">50 million</text><text x="92.60" y="365.8" fill="#666" dominant-baseline="middle" text-anchor="end" font-size="16.2">100 million</text><text x="92.60" y="281.1" fill="#666" dominant-baseline="middle" text-anchor="end" font-size="16.2">150 million</text><text x="92.60" y="196.3" fill="#666" dominant-baseline="middle" text-anchor="end" font-size="16.2">200 million</text><text x="92.60" y="111.6" fill="#666" dominant-baseline="middle" text-anchor="end" font-size="16.2">250 million</text></g><g class="AxisGridLines"><line x1="97.60" y1="535.3" x2="672.19" y2="535.3" stroke="#ccc"></line><line x1="97.60" y1="450.6" x2="672.19" y2="450.6" stroke="#ddd" stroke-dasharray="3,2"></line><line x1="97.60" y1="365.8" x2="672.19" y2="365.8" stroke="#ddd" stroke-dasharray="3,2"></line><line x1="97.60" y1="281.1" x2="672.19" y2="281.1" stroke="#ddd" stroke-dasharray="3,2"></line><line x1="97.60" y1="196.3" x2="672.19" y2="196.3" stroke="#ddd" stroke-dasharray="3,2"></line><line x1="97.60" y1="111.6" x2="672.19" y2="111.6" stroke="#ddd" stroke-dasharray="3,2"></line></g><g class="AxisGridLines"><line x1="97.6" y1="535.30" x2="97.6" y2="78.40" stroke="#ddd" stroke-dasharray="3,2"></line><line x1="187.4" y1="535.30" x2="187.4" y2="78.40" stroke="#ddd" stroke-dasharray="3,2"></line><line x1="277.2" y1="535.30" x2="277.2" y2="78.40" stroke="#ddd" stroke-dasharray="3,2"></line><line x1="366.9" y1="535.30" x2="366.9" y2="78.40" stroke="#ddd" stroke-dasharray="3,2"></line><line x1="456.7" y1="535.30" x2="456.7" y2="78.40" stroke="#ddd" stroke-dasharray="3,2"></line><line x1="546.5" y1="535.30" x2="546.5" y2="78.40" stroke="#ddd" stroke-dasharray="3,2"></line><line x1="636.3" y1="535.30" x2="636.3" y2="78.40" stroke="#ddd" stroke-dasharray="3,2"></line></g></g><g clip-path="url(#boundsClip-6)"><g class="HeightedLegend clickable"><g class="legendMark"><rect x="682.192" y="71.2" width="140.71200000000002" height="14.4" fill="#fff" opacity="0"></rect><rect x="682.192" y="77.15" width="10" height="2.5" fill="#34983f"></rect><text font-size="14.40" x="697.2" y="82.7" fill="#333"><tspan x="697.192" y="82.72000000000001">Daily male smokers</tspan></text></g><g class="legendMark"><rect x="682.192" y="507.50000000000006" width="152.80800000000002" height="14.4" fill="#fff" opacity="0"></rect><rect x="682.192" y="513.45" width="10" height="2.5" fill="#3360a9"></rect><text font-size="14.40" x="697.2" y="519.0" fill="#333"><tspan x="697.192" y="519.0200000000001">Daily female smokers</tspan></text></g></g><g class="Lines"><rect x="98" y="78" width="575" height="457" fill="rgba(255,255,255,0)" opacity="0"></rect><g class="key-China_0"><path stroke="#34983f" stroke-linecap="round" d="M98 253L116 242L134 230L152 218L169 207L187 197L205 189L223 180L241 172L259 165L277 158L295 151L313 143L331 136L349 128L367 120L385 113L403 111L421 112L439 114L457 120L475 125L493 129L511 128L529 126L547 124L565 121L582 119L600 113L618 106L636 98L654 88L672 78" fill="none" stroke-width="1.5"></path><g fill="#34983f"><circle cx="98" cy="253" r="2"></circle><circle cx="116" cy="242" r="2"></circle><circle cx="134" cy="230" r="2"></circle><circle cx="152" cy="218" r="2"></circle><circle cx="169" cy="207" r="2"></circle><circle cx="187" cy="197" r="2"></circle><circle cx="205" cy="189" r="2"></circle><circle cx="223" cy="180" r="2"></circle><circle cx="241" cy="172" r="2"></circle><circle cx="259" cy="165" r="2"></circle><circle cx="277" cy="158" r="2"></circle><circle cx="295" cy="151" r="2"></circle><circle cx="313" cy="143" r="2"></circle><circle cx="331" cy="136" r="2"></circle><circle cx="349" cy="128" r="2"></circle><circle cx="367" cy="120" r="2"></circle><circle cx="385" cy="113" r="2"></circle><circle cx="403" cy="111" r="2"></circle><circle cx="421" cy="112" r="2"></circle><circle cx="439" cy="114" r="2"></circle><circle cx="457" cy="120" r="2"></circle><circle cx="475" cy="125" r="2"></circle><circle cx="493" cy="129" r="2"></circle><circle cx="511" cy="128" r="2"></circle><circle cx="529" cy="126" r="2"></circle><circle cx="547" cy="124" r="2"></circle><circle cx="565" cy="121" r="2"></circle><circle cx="582" cy="119" r="2"></circle><circle cx="600" cy="113" r="2"></circle><circle cx="618" cy="106" r="2"></circle><circle cx="636" cy="98" r="2"></circle><circle cx="654" cy="88" r="2"></circle><circle cx="672" cy="78" r="2"></circle></g></g><g class="key-China_1"><path stroke="#3360a9" stroke-linecap="round" d="M98 509L116 507L134 506L152 505L169 503L187 504L205 504L223 504L241 505L259 505L277 506L295 506L313 507L331 507L349 508L367 508L385 508L403 509L421 509L439 509L457 510L475 512L493 513L511 514L529 515L547 516L565 517L582 517L600 517L618 517L636 517L654 516L672 515" fill="none" stroke-width="1.5"></path><g fill="#3360a9"><circle cx="98" cy="509" r="2"></circle><circle cx="116" cy="507" r="2"></circle><circle cx="134" cy="506" r="2"></circle><circle cx="152" cy="505" r="2"></circle><circle cx="169" cy="503" r="2"></circle><circle cx="187" cy="504" r="2"></circle><circle cx="205" cy="504" r="2"></circle><circle cx="223" cy="504" r="2"></circle><circle cx="241" cy="505" r="2"></circle><circle cx="259" cy="505" r="2"></circle><circle cx="277" cy="506" r="2"></circle><circle cx="295" cy="506" r="2"></circle><circle cx="313" cy="507" r="2"></circle><circle cx="331" cy="507" r="2"></circle><circle cx="349" cy="508" r="2"></circle><circle cx="367" cy="508" r="2"></circle><circle cx="385" cy="508" r="2"></circle><circle cx="403" cy="509" r="2"></circle><circle cx="421" cy="509" r="2"></circle><circle cx="439" cy="509" r="2"></circle><circle cx="457" cy="510" r="2"></circle><circle cx="475" cy="512" r="2"></circle><circle cx="493" cy="513" r="2"></circle><circle cx="511" cy="514" r="2"></circle><circle cx="529" cy="515" r="2"></circle><circle cx="547" cy="516" r="2"></circle><circle cx="565" cy="517" r="2"></circle><circle cx="582" cy="517" r="2"></circle><circle cx="600" cy="517" r="2"></circle><circle cx="618" cy="517" r="2"></circle><circle cx="636" cy="517" r="2"></circle><circle cx="654" cy="516" r="2"></circle><circle cx="672" cy="515" r="2"></circle></g></g></g></g></g><g style="fill: #777;" class="SourcesFooter"><g style="fill: #777;" class="clickable"><text font-size="12.60" x="15.0" y="581.6"><tspan x="15" y="581.58">Source: Institute for Health Metrics and Evaluation (IHME) (2012)</tspan></text></g><text font-size="12.60" x="649.0" y="581.6"><tspan x="649.024" y="581.58"><a target='_blank' style='fill: #777;' href='https://ourworldindata.org'>OurWorldInData.org</a> • <a style="fill: #777;" href="http://creativecommons.org/licenses/by-sa/4.0/deed.en_US" target="_blank">CC BY-SA</a></tspan></text></g></g></svg>
